epam-assets/icon-sources/18/notification-error-outline.svg

<svg width="18" height="18" viewBox="0 0 18 18" fill="none" xmlns="http://www.w3.org/2000/svg">
<g id="18/notification-error-outline">
<path id="icon" d="M9 12.75C9.2125 12.75 9.39075 12.678 9.53475 12.534C9.67825 12.3905 9.75 12.2125 9.75 12C9.75 11.7875 9.67825 11.6093 9.53475 11.4653C9.39075 11.3217 9.2125 11.25 9 11.25C8.7875 11.25 8.6095 11.3217 8.466 11.4653C8.322 11.6093 8.25 11.7875 8.25 12C8.25 12.2125 8.322 12.3905 8.466 12.534C8.6095 12.678 8.7875 12.75 9 12.75ZM8.25 9.75H9.75V5.25H8.25V9.75ZM9 16.5C7.9625 16.5 6.9875 16.303 6.075 15.909C5.1625 15.5155 4.36875 14.9813 3.69375 14.3063C3.01875 13.6313 2.4845 12.8375 2.091 11.925C1.697 11.0125 1.5 10.0375 1.5 9C1.5 7.9625 1.697 6.9875 2.091 6.075C2.4845 5.1625 3.01875 4.36875 3.69375 3.69375C4.36875 3.01875 5.1625 2.48425 6.075 2.09025C6.9875 1.69675 7.9625 1.5 9 1.5C10.0375 1.5 11.0125 1.69675 11.925 2.09025C12.8375 2.48425 13.6313 3.01875 14.3063 3.69375C14.9813 4.36875 15.5155 5.1625 15.909 6.075C16.303 6.9875 16.5 7.9625 16.5 9C16.5 10.0375 16.303 11.0125 15.909 11.925C15.5155 12.8375 14.9813 13.6313 14.3063 14.3063C13.6313 14.9813 12.8375 15.5155 11.925 15.909C11.0125 16.303 10.0375 16.5 9 16.5ZM9 15C10.675 15 12.0937 14.4187 13.2562 13.2562C14.4187 12.0937 15 10.675 15 9C15 7.325 14.4187 5.90625 13.2562 4.74375C12.0937 3.58125 10.675 3 9 3C7.325 3 5.90625 3.58125 4.74375 4.74375C3.58125 5.90625 3 7.325 3 9C3 10.675 3.58125 12.0937 4.74375 13.2562C5.90625 14.4187 7.325 15 9 15Z" fill="#6C6F80"/>
</g>
</svg>

<svg xmlns="http://www.w3.org/2000/svg" width="18" height="18" fill="none" viewBox="0 0 18 18">
  <path fill="#6C6F80" d="M9 12.75c.213 0 .39-.072.535-.216A.725.725 0 0 0 9.75 12a.727.727 0 0 0-.215-.535A.727.727 0 0 0 9 11.25a.725.725 0 0 0-.534.215.726.726 0 0 0-.216.535c0 .213.072.39.216.534A.724.724 0 0 0 9 12.75Zm-.75-3h1.5v-4.5h-1.5v4.5ZM9 16.5a7.3 7.3 0 0 1-2.925-.591 7.569 7.569 0 0 1-2.381-1.603 7.569 7.569 0 0 1-1.603-2.381A7.3 7.3 0 0 1 1.5 9a7.3 7.3 0 0 1 .591-2.925 7.569 7.569 0 0 1 1.603-2.381A7.58 7.58 0 0 1 6.075 2.09 7.307 7.307 0 0 1 9 1.5c1.037 0 2.012.197 2.925.59a7.58 7.58 0 0 1 2.381 1.604 7.569 7.569 0 0 1 1.603 2.381A7.3 7.3 0 0 1 16.5 9a7.3 7.3 0 0 1-.591 2.925 7.569 7.569 0 0 1-1.603 2.381 7.569 7.569 0 0 1-2.381 1.603A7.3 7.3 0 0 1 9 16.5ZM9 15c1.675 0 3.094-.581 4.256-1.744C14.42 12.094 15 10.675 15 9c0-1.675-.581-3.094-1.744-4.256C12.094 3.58 10.675 3 9 3c-1.675 0-3.094.581-4.256 1.744C3.58 5.906 3 7.325 3 9c0 1.675.581 3.094 1.744 4.256C5.906 14.42 7.325 15 9 15Z"/>
</svg>
